src/22/actions/edit-image-face-show.svg

<svg xmlns="http://www.w3.org/2000/svg" viewBox="0 0 22 22">
  <defs id="defs3051">
    <style type="text/css" id="current-color-scheme">
      .ColorScheme-Text {
        color:#5d656b;
      }
      </style>
  </defs>
 <path 
    style="fill:currentColor;fill-opacity:1;stroke:none" 
	d="m3 3v1 15h1 15v-1-15h-16m1 1h14v14h-14v-14m1 1v1 1h1v-1h1v-1h-2m6 0c-1.385 0-2.5 1.115-2.5 2.5 0 1.385 1.115 2.5 2.5 2.5 1.385 0 2.5-1.115 2.5-2.5 0-1.385-1.115-2.5-2.5-2.5m4 0v1h1v1h1v-2h-2m-4 1c.831 0 1.5.669 1.5 1.5 0 .831-.669 1.5-1.5 1.5-.831 0-1.5-.669-1.5-1.5 0-.831.669-1.5 1.5-1.5m-6 3v1 1h2v-1h-1v-1h-1m11 0v1h-1v1h2v-1-1h-1m-5 2c-2.49299 0-4.5 2.00701-4.5 4.5v.5 1h.275391.724609.345703 6.308594 1.070312.275391v-1-.5c0-2.49299-2.00701-4.5-4.5-4.5m0 1c1.93899 0 3.5 1.56101 3.5 3.5v.5h-7v-.5c0-1.93899 1.56101-3.5 3.5-3.5"
    class="ColorScheme-Text"
    />  
</svg>

<svg xmlns="http://www.w3.org/2000/svg" viewBox="0 0 22 22"><path d="M3 3v16h16V3H3m1 1h14v14H4V4m1 1v2h1V6h1V5H5m6 0a2.495 2.495 0 0 0-2.5 2.5C8.5 8.885 9.615 10 11 10s2.5-1.115 2.5-2.5S12.385 5 11 5m4 0v1h1v1h1V5h-2m-4 1c.831 0 1.5.669 1.5 1.5S11.831 9 11 9s-1.5-.669-1.5-1.5S10.169 6 11 6M5 9v2h2v-1H6V9H5m11 0v1h-1v1h2V9h-1m-5 2a4.49 4.49 0 0 0-4.5 4.5V17h9v-1.5A4.49 4.49 0 0 0 11 11m0 1c1.939 0 3.5 1.561 3.5 3.5v.5h-7v-.5c0-1.939 1.561-3.5 3.5-3.5" fill="currentColor" color="#5d656b"/></svg>
